src/assets/home/govern-node.svg

<svg fill="none" height="220" viewBox="0 0 220 220" width="220" xmlns="http://www.w3.org/2000/svg" xmlns:xlink="http://www.w3.org/1999/xlink"><linearGradient id="a" gradientUnits="userSpaceOnUse" x1="110" x2="110" y1="47.9286" y2="220"><stop offset="0" stop-color="#fff" stop-opacity="0"/><stop offset="1" stop-color="#bcffa4"/></linearGradient><linearGradient id="b" gradientUnits="userSpaceOnUse" x1="110" x2="110" y1="47.9286" y2="220"><stop offset="0" stop-color="#fff" stop-opacity="0"/><stop offset="1" stop-color="#b5ffd2"/></linearGradient><linearGradient id="c"><stop offset="0" stop-color="#fff" stop-opacity="0"/><stop offset="1" stop-color="#93ecb6"/></linearGradient><radialGradient id="d" cx="0" cy="0" gradientTransform="matrix(3.55845607 -21.3106467 35.35835136 5.90414462 175.007 102.474)" gradientUnits="userSpaceOnUse" r="1" xlink:href="#c"/><radialGradient id="e" cx="0" cy="0" gradientTransform="matrix(1.07355643 -40.86119953 49.08116296 1.28952157 42.1667 151.638)" gradientUnits="userSpaceOnUse" r="1" xlink:href="#c"/><radialGradient id="f" cx="0" cy="0" gradientTransform="matrix(.42942205 -16.34445982 19.6324252 .51580758 88 117.855)" gradientUnits="userSpaceOnUse" r="1"><stop offset="0" stop-color="#fff" stop-opacity="0"/><stop offset="1" stop-color="#caec93"/></radialGradient><radialGradient id="g" cx="0" cy="0" gradientTransform="matrix(.51200452 -19.48767515 23.40792234 .61500215 130.167 146.913)" gradientUnits="userSpaceOnUse" r="1"><stop offset="0" stop-color="#fff" stop-opacity="0"/><stop offset="1" stop-color="#c3f237" stop-opacity=".83"/></radialGradient><linearGradient id="h" gradientUnits="userSpaceOnUse" x1="44.3731" x2="170.138" y1="144.94" y2="106.664"><stop offset="0" stop-color="#81ef66"/><stop offset="1" stop-color="#c3f237"/></linearGradient><linearGradient id="i" gradientUnits="userSpaceOnUse" x1="176.917" x2="188.604" y1="80.6666" y2="112.979"><stop offset="0" stop-color="#8fff00"/><stop offset="1" stop-color="#ddf3de"/></linearGradient><linearGradient id="j"><stop offset="0" stop-color="#74ec61"/><stop offset="1" stop-color="#f0ff92"/></linearGradient><linearGradient id="k" gradientUnits="userSpaceOnUse" x1="130.087" x2="139.485" xlink:href="#j" y1="131.542" y2="160.591"/><linearGradient id="l" gradientUnits="userSpaceOnUse" x1="75.1667" x2="98.8614" xlink:href="#j" y1="119.534" y2="110.421"/><linearGradient id="m" gradientUnits="userSpaceOnUse" x1="42.0707" x2="53.3485" xlink:href="#j" y1="131.542" y2="166.4"/><mask id="n" height="220" maskUnits="userSpaceOnUse" width="220" x="0" y="0"><circle cx="110" cy="110" fill="url(#b)" r="110"/></mask><circle cx="110" cy="110" fill="url(#a)" r="110"/><g clip-rule="evenodd" fill-rule="evenodd" mask="url(#n)"><path d="m175.007 128.792c16.327 0 29.562-13.236 29.562-29.5629s-13.235-29.5625-29.562-29.5625-29.563 13.2356-29.563 29.5625 13.236 29.5629 29.563 29.5629zm.274-17.519c6.5 0 11.77-5.27 11.77-11.7702 0-6.5005-5.27-11.7702-11.77-11.7702-6.501 0-11.771 5.2697-11.771 11.7702 0 6.5002 5.27 11.7702 11.771 11.7702z" fill="url(#d)"/><path d="m42.1667 187c21.938 0 39.7222-17.784 39.7222-39.722s-17.7842-39.722-39.7222-39.722-39.72224 17.784-39.72224 39.722 17.78424 39.722 39.72224 39.722zm.3679-23.539c8.7345 0 15.8153-7.081 15.8153-15.815 0-8.735-7.0808-15.816-15.8153-15.816-8.7346 0-15.8153 7.081-15.8153 15.816 0 8.734 7.0807 15.815 15.8153 15.815z" fill="url(#e)"/><path d="m88 132c8.7752 0 15.889-7.114 15.889-15.889s-7.1138-15.889-15.889-15.889-15.8889 7.114-15.8889 15.889 7.1137 15.889 15.8889 15.889zm.1471-9.416c3.4939 0 6.3262-2.832 6.3262-6.326s-2.8323-6.326-6.3262-6.326c-3.4938 0-6.3261 2.832-6.3261 6.326s2.8323 6.326 6.3261 6.326z" fill="url(#f)"/><path d="m130.167 163.778c10.462 0 18.944-8.482 18.944-18.945 0-10.462-8.482-18.944-18.944-18.944-10.463 0-18.945 8.482-18.945 18.944 0 10.463 8.482 18.945 18.945 18.945zm.175-11.227c4.166 0 7.543-3.377 7.543-7.542 0-4.166-3.377-7.543-7.543-7.543s-7.543 3.377-7.543 7.543c0 4.165 3.377 7.542 7.543 7.542z" fill="url(#g)"/></g><path d="m44.3731 145.851 45.5669-30.074 37.365 32.808 37.365-39.187 10.184-14.9814" stroke="url(#h)" stroke-linecap="round" stroke-width="4"/><circle cx="176.917" cy="98.5416" fill="url(#i)" r="17.875"/><circle cx="130.087" cy="145.212" fill="url(#k)" r="13.6701"/><circle cx="87.9254" cy="116.8" fill="url(#l)" r="12.7587"/><circle cx="42.0707" cy="147.946" fill="url(#m)" r="16.4041"/></svg>

<svg width="220" height="220" viewBox="0 0 220 220" fill="none" xmlns="http://www.w3.org/2000/svg">
<circle cx="110" cy="110" r="110" fill="url(#paint0_linear_24_2121)"/>
<mask id="mask0_24_2121" style="mask-type:alpha" maskUnits="userSpaceOnUse" x="0" y="0" width="220" height="220">
<circle cx="110" cy="110" r="110" fill="url(#paint1_linear_24_2121)"/>
</mask>
<g mask="url(#mask0_24_2121)">
<path fill-rule="evenodd" clip-rule="evenodd" d="M175.007 128.792C191.334 128.792 204.569 115.556 204.569 99.2291C204.569 82.9022 191.334 69.6666 175.007 69.6666C158.68 69.6666 145.444 82.9022 145.444 99.2291C145.444 115.556 158.68 128.792 175.007 128.792ZM175.281 111.273C181.781 111.273 187.051 106.003 187.051 99.5028C187.051 93.0023 181.781 87.7326 175.281 87.7326C168.78 87.7326 163.51 93.0023 163.51 99.5028C163.51 106.003 168.78 111.273 175.281 111.273Z" fill="url(#paint2_radial_24_2121)"/>
<path fill-rule="evenodd" clip-rule="evenodd" d="M42.1667 187C64.1047 187 81.8889 169.216 81.8889 147.278C81.8889 125.34 64.1047 107.556 42.1667 107.556C20.2287 107.556 2.44446 125.34 2.44446 147.278C2.44446 169.216 20.2287 187 42.1667 187ZM42.5346 163.461C51.2691 163.461 58.3499 156.38 58.3499 147.646C58.3499 138.911 51.2691 131.83 42.5346 131.83C33.8 131.83 26.7193 138.911 26.7193 147.646C26.7193 156.38 33.8 163.461 42.5346 163.461Z" fill="url(#paint3_radial_24_2121)"/>
<path fill-rule="evenodd" clip-rule="evenodd" d="M88 132C96.7752 132 103.889 124.886 103.889 116.111C103.889 107.336 96.7752 100.222 88 100.222C79.2248 100.222 72.1111 107.336 72.1111 116.111C72.1111 124.886 79.2248 132 88 132ZM88.1471 122.584C91.641 122.584 94.4733 119.752 94.4733 116.258C94.4733 112.764 91.641 109.932 88.1471 109.932C84.6533 109.932 81.821 112.764 81.821 116.258C81.821 119.752 84.6533 122.584 88.1471 122.584Z" fill="url(#paint4_radial_24_2121)"/>
<path fill-rule="evenodd" clip-rule="evenodd" d="M130.167 163.778C140.629 163.778 149.111 155.296 149.111 144.833C149.111 134.371 140.629 125.889 130.167 125.889C119.704 125.889 111.222 134.371 111.222 144.833C111.222 155.296 119.704 163.778 130.167 163.778ZM130.342 152.551C134.508 152.551 137.885 149.174 137.885 145.009C137.885 140.843 134.508 137.466 130.342 137.466C126.176 137.466 122.799 140.843 122.799 145.009C122.799 149.174 126.176 152.551 130.342 152.551Z" fill="url(#paint5_radial_24_2121)"/>
</g>
<path d="M44.3731 145.851L89.94 115.777L127.305 148.585L164.67 109.398L174.854 94.4166" stroke="url(#paint6_linear_24_2121)" stroke-width="4" stroke-linecap="round"/>
<circle cx="176.917" cy="98.5416" r="17.875" fill="url(#paint7_linear_24_2121)"/>
<circle cx="130.087" cy="145.212" r="13.6701" fill="url(#paint8_linear_24_2121)"/>
<circle cx="87.9254" cy="116.8" r="12.7587" fill="url(#paint9_linear_24_2121)"/>
<circle cx="42.0707" cy="147.946" r="16.4041" fill="url(#paint10_linear_24_2121)"/>
<defs>
<linearGradient id="paint0_linear_24_2121" x1="110" y1="47.9286" x2="110" y2="220" gradientUnits="userSpaceOnUse">
<stop stop-color="white" stop-opacity="0"/>
<stop offset="1" stop-color="#BCFFA4"/>
</linearGradient>
<linearGradient id="paint1_linear_24_2121" x1="110" y1="47.9286" x2="110" y2="220" gradientUnits="userSpaceOnUse">
<stop stop-color="white" stop-opacity="0"/>
<stop offset="1" stop-color="#B5FFD2"/>
</linearGradient>
<radialGradient id="paint2_radial_24_2121" cx="0" cy="0" r="1" gradientUnits="userSpaceOnUse" gradientTransform="translate(175.007 102.474) rotate(-80.5202) scale(21.6057 35.8479)">
<stop stop-color="white" stop-opacity="0"/>
<stop offset="1" stop-color="#93ECB6"/>
</radialGradient>
<radialGradient id="paint3_radial_24_2121" cx="0" cy="0" r="1" gradientUnits="userSpaceOnUse" gradientTransform="translate(42.1667 151.638) rotate(-88.495) scale(40.8753 49.0981)">
<stop stop-color="white" stop-opacity="0"/>
<stop offset="1" stop-color="#93ECB6"/>
</radialGradient>
<radialGradient id="paint4_radial_24_2121" cx="0" cy="0" r="1" gradientUnits="userSpaceOnUse" gradientTransform="translate(88 117.855) rotate(-88.495) scale(16.3501 19.6392)">
<stop stop-color="white" stop-opacity="0"/>
<stop offset="1" stop-color="#CAEC93"/>
</radialGradient>
<radialGradient id="paint5_radial_24_2121" cx="0" cy="0" r="1" gradientUnits="userSpaceOnUse" gradientTransform="translate(130.167 146.913) rotate(-88.495) scale(19.4944 23.416)">
<stop stop-color="white" stop-opacity="0"/>
<stop offset="1" stop-color="#C3F237" stop-opacity="0.83"/>
</radialGradient>
<linearGradient id="paint6_linear_24_2121" x1="44.3731" y1="144.94" x2="170.138" y2="106.664" gradientUnits="userSpaceOnUse">
<stop stop-color="#81EF66"/>
<stop offset="1" stop-color="#C3F237"/>
</linearGradient>
<linearGradient id="paint7_linear_24_2121" x1="176.917" y1="80.6666" x2="188.604" y2="112.979" gradientUnits="userSpaceOnUse">
<stop stop-color="#8FFF00"/>
<stop offset="1" stop-color="#DDF3DE"/>
</linearGradient>
<linearGradient id="paint8_linear_24_2121" x1="130.087" y1="131.542" x2="139.485" y2="160.591" gradientUnits="userSpaceOnUse">
<stop stop-color="#74EC61"/>
<stop offset="1" stop-color="#F0FF92"/>
</linearGradient>
<linearGradient id="paint9_linear_24_2121" x1="75.1667" y1="119.534" x2="98.8614" y2="110.421" gradientUnits="userSpaceOnUse">
<stop stop-color="#74EC61"/>
<stop offset="1" stop-color="#F0FF92"/>
</linearGradient>
<linearGradient id="paint10_linear_24_2121" x1="42.0707" y1="131.542" x2="53.3485" y2="166.4" gradientUnits="userSpaceOnUse">
<stop stop-color="#74EC61"/>
<stop offset="1" stop-color="#F0FF92"/>
</linearGradient>
</defs>
</svg>
